assets/icons/User.svg

<?xml version="1.0" encoding="UTF-8"?>
<svg width="48px" height="48px" viewBox="0 0 48 48" version="1.1" xmlns="http://www.w3.org/2000/svg" xmlns:xlink="http://www.w3.org/1999/xlink">
    <title>Avatar / User</title>
    <g id="Avatar-/-User" stroke="none" stroke-width="1" fill="none" fill-rule="evenodd">
        <path d="M24,3 C12.4020203,3 3,12.4020203 3,24 C3,35.5979797 12.4020203,45 24,45 C35.5979797,45 45,35.5979797 45,24 C45,18.4304537 42.7875064,13.0890215 38.8492424,9.1507576 C34.9109785,5.21249365 29.5695463,3 24,3 Z M15,39.56 L15,35 C15,32.55 17.12,30.52 19.91,30.09 C20.2705073,30.0322532 20.6349034,30.0021655 21,30 L27,30 C27.3650966,30.0021655 27.7294927,30.0322532 28.09,30.09 C30.88,30.52 33,32.55 33,35 L33,39.56 C27.4391986,42.8066548 20.5608014,42.8066548 15,39.56 Z M36,37.37 L36,34.5 C35.9983997,34.3645491 35.9782112,34.2299592 35.94,34.1 C35.44,30.1 31.63,27 27,27 L26.65,27 L26.5,27 L21.5,27 L21.35,27 L21,27 C16.37,27 12.56,30.11 12.06,34.1 C12.0217888,34.2299592 12.0016003,34.3645491 12,34.5 L12,37.38 C6.43734192,32.4046074 4.52190254,24.5126059 7.18489754,17.5407945 C9.84789254,10.5689831 16.536911,5.96359214 24,5.96359214 C31.463089,5.96359214 38.1521075,10.5689831 40.8151025,17.5407945 C43.4780975,24.5126059 41.5626581,32.4046074 36,37.38 L36,37.37 Z M24,9 C19.581722,9 16,12.581722 16,17 C16,21.418278 19.581722,25 24,25 C28.418278,25 32,21.418278 32,17 C32,14.8782681 31.1571453,12.8434368 29.6568542,11.3431458 C28.1565632,9.84285472 26.1217319,9 24,9 Z M24,22 C21.2385763,22 19,19.7614237 19,17 C19,14.2385763 21.2385763,12 24,12 C26.7614237,12 29,14.2385763 29,17 C29,19.7614237 26.7614237,22 24,22 L24,22 Z" id="avatar" fill="#0071B3"></path>
    </g>
</svg>

<?xml version="1.0" encoding="utf-8"?>
<!-- Generator: Adobe Illustrator 27.7.0, SVG Export Plug-In . SVG Version: 6.00 Build 0)  -->
<svg version="1.1" id="Layer_1" xmlns="http://www.w3.org/2000/svg" xmlns:xlink="http://www.w3.org/1999/xlink" x="0px" y="0px"
	 viewBox="0 0 48 48" style="enable-background:new 0 0 48 48;" xml:space="preserve">
<style type="text/css">
	.st0{fill:#FFFFFF;}
</style>
<g id="Avatar-_x2F_-User">
	<path id="avatar" class="st0" d="M24,3C12.4,3,3,12.4,3,24s9.4,21,21,21s21-9.4,21-21c0-5.6-2.2-10.9-6.2-14.8S29.6,3,24,3z
		 M15,39.6V35c0-2.5,2.1-4.5,4.9-4.9C20.3,30,20.6,30,21,30h6c0.4,0,0.7,0,1.1,0.1c2.8,0.4,4.9,2.5,4.9,4.9v4.6
		C27.4,42.8,20.6,42.8,15,39.6z M36,37.4v-2.9c0-0.1,0-0.3-0.1-0.4c-0.5-4-4.3-7.1-8.9-7.1h-0.4h-0.1h-5h-0.1H21
		c-4.6,0-8.4,3.1-8.9,7.1c0,0.1-0.1,0.3-0.1,0.4v2.9c-5.6-5-7.5-12.9-4.8-19.8S16.5,6,24,6s14.2,4.6,16.8,11.6S41.6,32.4,36,37.4
		L36,37.4z M24,9c-4.4,0-8,3.6-8,8s3.6,8,8,8s8-3.6,8-8c0-2.1-0.8-4.2-2.3-5.7C28.2,9.8,26.1,9,24,9z M24,22c-2.8,0-5-2.2-5-5
		s2.2-5,5-5s5,2.2,5,5S26.8,22,24,22L24,22z"/>
</g>
</svg>
